third_party/noto/noto_2/emoji_u1f5c3.svg

<svg enable-background="new 0 0 128 128" version="1.1" viewBox="0 0 128 128" xmlns="http://www.w3.org/2000/svg"><polygon points="116.52 45.71 13.11 45.71 18.84 27.47 108.89 27.47" fill="#37474F"/><path d="m122.87 55.32-10.79-26.32c-0.59-1.66-2.16-2.77-3.92-2.77h-88.3c-1.76 0-3.33 1.11-3.92 2.77l-10.81 26.32c-0.41 1.21 0.49 2.47 1.77 2.47h114.2c1.28 0 2.18-1.26 1.77-2.47zm-7.39-1.51h-102.96c-1.31 0-2.23-1.29-1.81-2.53l8.54-19.71c0.42-1.17 1.53-1.95 2.77-1.95h83.98c1.24 0 2.35 0.78 2.77 1.95l8.54 19.71c0.41 1.24-0.52 2.53-1.83 2.53z" fill="#82AEC0"/><path d="M5,56.11v65.42C5,122.9,6.1,124,7.46,124h113.07c1.36,0,2.47-1.1,2.47-2.47V55.9L5,56.11z" fill="#37474F"/><path d="m106.73 56.1v-31.89c0-0.92-0.75-1.67-1.67-1.67v-6.33c0-1.42-1.15-2.57-2.57-2.57h-17.34c-1.42 0-2.57 1.15-2.57 2.57v1.76c0 2.52-2.05 4.57-4.57 4.57h-54.29c-1.35 0-2.45 1.1-2.45 2.45v31.1h85.46z" fill="#F3AB47"/><path d="m105.07 22.55v-6.33c0-1.42-1.15-2.57-2.57-2.57h-17.35c-1.42 0-2.57 1.15-2.57 2.57v1.76c0 1.85-1.27 3.93-4.02 4.57h26.51z" fill="#7CB342"/><rect x="21.27" y="27.47" width="85.47" height="5.21" fill="#DE7340" opacity=".75"/><path d="m112.36 55.95v-23.09c0-1.53-1.24-2.78-2.78-2.78h-27.69c-2.86 0-5.17-2.32-5.17-5.17v-1.99c0-1.61-1.3-2.91-2.91-2.91h-19.62c-1.61 0-2.91 1.3-2.91 2.91v1.99c0 2.86-2.32 5.17-5.17 5.17h-27.69c-1.53 0-2.78 1.24-2.78 2.78v23.09h96.72z" fill="#FFCA28"/><path d="m76.72 24.91v-1.99c0-1.61-1.3-2.91-2.91-2.91h-19.62c-1.61 0-2.91 1.3-2.91 2.91v1.99c0 2.86-2.32 5.17-5.17 5.17h35.79c-2.86 0-5.18-2.32-5.18-5.17z" fill="#0288D1"/><rect x="12.68" y="38.09" width="99.68" height="5.21" fill="#F3AB47"/><path d="M117.4,55.95V43.8c0-1.69-1.37-3.07-3.07-3.07H46.49c-3.15,0-5.71-2.56-5.71-5.71v-2.2   c0-1.77-1.44-3.21-3.21-3.21H15.9c-1.77,0-3.21,1.44-3.21,3.21v7.91c-1.15,0-2.08,0.93-2.08,2.08v13.13H117.4z" fill="#FFE36C"/><path d="m40.78 35.02v-2.2c0-1.77-1.44-3.21-3.21-3.21h-21.67c-1.77 0-3.21 1.44-3.21 3.21v7.91h33.81c-3.16 0-5.72-2.55-5.72-5.71z" fill="#F44336"/><path d="m117.4 51.27c0.25 2.29-0.61 2.53-1.92 2.53h-102.96c-1.31 0-2.21 0.1-1.92-2.31l-3.95 0.13-1.52 3.7c-0.41 1.21 0.49 2.47 1.77 2.47h114.2c1.28 0 2.18-1.26 1.77-2.47l-1.75-4.29-3.72 0.24z" fill="#82AEC0"/><rect x="46.49" y="82.74" width="33.38" height="17.4" fill="#FAFAFA"/><path d="m77.01 86.38s-1.35 2.71-1.38 6.27c-0.03 4.07 1.6 7.65 1.6 7.65l-28.13-0.31s1.77-2.74 1.87-6.65c0.1-3.7-1.43-6.96-1.43-6.96h27.47zm1.74-4h-30.78c-1.75 0-3.17 1.42-3.17 3.17v15.58c0 1.75 1.42 3.17 3.17 3.17h30.78c1.75 0 3.17-1.42 3.17-3.17v-15.58c-0.01-1.75-1.42-3.17-3.17-3.17z" fill="#263238"/><path d="m77.91 84.55s-1.86 2.91-1.86 6.47 1.86 7.44 1.86 7.44h-29.11s1.79-3.61 1.79-6.96-1.79-6.96-1.79-6.96h29.11zm0.84-4h-30.78c-1.75 0-3.17 1.42-3.17 3.17v15.58c0 1.75 1.42 3.17 3.17 3.17h30.78c1.75 0 3.17-1.42 3.17-3.17v-15.58c-0.01-1.75-1.42-3.17-3.17-3.17z" fill="#9E9E9E"/><line x1="47.97" x2="60.15" y1="81.93" y2="81.93" fill="none" stroke="#C9E3E6" stroke-linecap="round" stroke-miterlimit="10" stroke-width="2"/></svg>

<?xml version="1.0" encoding="utf-8"?>
<!-- Generator: Adobe Illustrator 25.2.3, SVG Export Plug-In . SVG Version: 6.00 Build 0)  -->
<svg version="1.1" id="Layer_3_copy" xmlns="http://www.w3.org/2000/svg" xmlns:xlink="http://www.w3.org/1999/xlink" x="0px"
	 y="0px" viewBox="0 0 128 128" style="enable-background:new 0 0 128 128;" xml:space="preserve">
<g>
	<polygon style="fill:#37474F;" points="116.52,45.71 13.11,45.71 18.84,27.47 108.89,27.47 	"/>
	<path style="fill:#82AEC0;" d="M122.87,55.32L112.08,29c-0.59-1.66-2.16-2.77-3.92-2.77h-88.3c-1.76,0-3.33,1.11-3.92,2.77
		L5.13,55.32c-0.41,1.21,0.49,2.47,1.77,2.47h114.2C122.38,57.79,123.28,56.53,122.87,55.32z M115.48,53.81H12.52
		c-1.31,0-2.23-1.29-1.81-2.53l8.54-19.71c0.42-1.17,1.53-1.95,2.77-1.95h83.98c1.24,0,2.35,0.78,2.77,1.95l8.54,19.71
		C117.72,52.52,116.79,53.81,115.48,53.81z"/>
	<path style="fill:#37474F;" d="M5,56.11v65.42C5,122.9,6.1,124,7.46,124h113.07c1.36,0,2.47-1.1,2.47-2.47V55.9L5,56.11z"/>
	<path style="fill:#F3AB47;" d="M106.73,56.1V24.21c0-0.92-0.75-1.67-1.67-1.67v-6.33c0-1.42-1.15-2.57-2.57-2.57H85.15
		c-1.42,0-2.57,1.15-2.57,2.57v1.76c0,2.52-2.05,4.57-4.57,4.57H23.72c-1.35,0-2.45,1.1-2.45,2.45v31.1H106.73z"/>
	<path style="fill:#7CB342;" d="M105.07,22.55l0-6.33c0-1.42-1.15-2.57-2.57-2.57H85.15c-1.42,0-2.57,1.15-2.57,2.57v1.76
		c0,1.85-1.27,3.93-4.02,4.57H105.07z"/>
	<rect x="21.27" y="27.47" style="opacity:0.75;fill:#DE7340;" width="85.47" height="5.21"/>
	<path style="fill:#FFCA28;" d="M112.36,55.95V32.86c0-1.53-1.24-2.78-2.78-2.78H81.89c-2.86,0-5.17-2.32-5.17-5.17v-1.99
		c0-1.61-1.3-2.91-2.91-2.91H54.19c-1.61,0-2.91,1.3-2.91,2.91v1.99c0,2.86-2.32,5.17-5.17,5.17H18.42c-1.53,0-2.78,1.24-2.78,2.78
		v23.09H112.36z"/>
	<path style="fill:#0288D1;" d="M76.72,24.91v-1.99c0-1.61-1.3-2.91-2.91-2.91H54.19c-1.61,0-2.91,1.3-2.91,2.91v1.99
		c0,2.86-2.32,5.17-5.17,5.17h35.79C79.04,30.08,76.72,27.76,76.72,24.91z"/>
	<rect x="12.68" y="38.09" style="fill:#F3AB47;" width="99.68" height="5.21"/>
	<path style="fill:#FFE36C;" d="M117.4,55.95V43.8c0-1.69-1.37-3.07-3.07-3.07H46.49c-3.15,0-5.71-2.56-5.71-5.71v-2.2
		c0-1.77-1.44-3.21-3.21-3.21H15.9c-1.77,0-3.21,1.44-3.21,3.21v7.91c-1.15,0-2.08,0.93-2.08,2.08v13.13H117.4z"/>
	<path style="fill:#F44336;" d="M40.78,35.02v-2.2c0-1.77-1.44-3.21-3.21-3.21H15.9c-1.77,0-3.21,1.44-3.21,3.21v7.91h33.81
		C43.34,40.73,40.78,38.18,40.78,35.02z"/>
	<path style="fill:#82AEC0;" d="M117.4,51.27c0.25,2.29-0.61,2.53-1.92,2.53H12.52c-1.31,0-2.21,0.1-1.92-2.31l-3.95,0.13l-1.52,3.7
		c-0.41,1.21,0.49,2.47,1.77,2.47h114.2c1.28,0,2.18-1.26,1.77-2.47l-1.75-4.29L117.4,51.27z"/>
	<rect x="46.49" y="82.74" style="fill:#FAFAFA;" width="33.38" height="17.4"/>
	<path style="fill:#263238;" d="M77.01,86.38c0,0-1.35,2.71-1.38,6.27c-0.03,4.07,1.6,7.65,1.6,7.65l-28.13-0.31
		c0,0,1.77-2.74,1.87-6.65c0.1-3.7-1.43-6.96-1.43-6.96H77.01z M78.75,82.38H47.97c-1.75,0-3.17,1.42-3.17,3.17v15.58
		c0,1.75,1.42,3.17,3.17,3.17h30.78c1.75,0,3.17-1.42,3.17-3.17V85.55C81.91,83.8,80.5,82.38,78.75,82.38L78.75,82.38z"/>
	<path style="fill:#9E9E9E;" d="M77.91,84.55c0,0-1.86,2.91-1.86,6.47s1.86,7.44,1.86,7.44H48.8c0,0,1.79-3.61,1.79-6.96
		s-1.79-6.96-1.79-6.96H77.91z M78.75,80.55H47.97c-1.75,0-3.17,1.42-3.17,3.17V99.3c0,1.75,1.42,3.17,3.17,3.17h30.78
		c1.75,0,3.17-1.42,3.17-3.17V83.72C81.91,81.97,80.5,80.55,78.75,80.55L78.75,80.55z"/>
	
		<line style="fill:none;stroke:#C9E3E6;stroke-width:2;stroke-linecap:round;stroke-miterlimit:10;" x1="47.97" y1="81.93" x2="60.15" y2="81.93"/>
</g>
</svg>
